svgs/sharp-solid/network-wired.svg

<svg xmlns="http://www.w3.org/2000/svg" viewBox="0 0 640 512"><!--! Font Awesome Pro 6.6.0 by @fontawesome - https://fontawesome.com License - https://fontawesome.com/license (Commercial License) Copyright 2024 Fonticons, Inc. --><path d="M384 64l0 64-32 0-64 0-32 0 0-64 128 0zM352 192l32 0 64 0 0-64 0-64 0-64L384 0 256 0 192 0l0 64 0 64 0 64 64 0 32 0 0 32-96 0-64 0-96 0L0 224l0 64 32 0 96 0 0 32-32 0-64 0 0 64 0 64 0 64 64 0 128 0 64 0 0-64 0-64 0-64-64 0-32 0 0-32 96 0 64 0 96 0 0 32-32 0-64 0 0 64 0 64 0 64 64 0 128 0 64 0 0-64 0-64 0-64-64 0-32 0 0-32 96 0 32 0 0-64-32 0-96 0-64 0-96 0 0-32zM512 384l32 0 0 64-128 0 0-64 32 0 64 0zm-320 0l32 0 0 64L96 448l0-64 32 0 64 0z"/></svg>

<svg xmlns="http://www.w3.org/2000/svg" viewBox="0 0 640 512"><!--! Font Awesome Pro 6.4.0 by @fontawesome - https://fontawesome.com License - https://fontawesome.com/license (Commercial License) Copyright 2023 Fonticons, Inc. --><path d="M384 64v64H352 288 256V64H384zM352 192h32 64V128 64 0H384 256 192V64v64 64h64 32v32H192 128 32 0v64H32h96v32H96 32v64 64 64H96 224h64V448 384 320H224 192V288h96 64 96v32H416 352v64 64 64h64H544h64V448 384 320H544 512V288h96 32V224H608 512 448 352V192zM512 384h32v64H416V384h32 64zm-320 0h32v64H96V384h32 64z"/></svg>
